X: 32563
T: Planxty Hewlett
R: waltz
M: 3/4
K: Dmajor
AF|:D2 D2 FG|AB c2 A2|d2 f2 fg|fe d2 dB|
A2 F2 FA|GA GA BG|AF D2 DE|1 D4 AF:|2 D4 A2||
A2 D2 AB|A2 D2 AB|A2 d2 de|dc BA GF|
G2 GF GA|G2 GF GA|GF GA BG|AF D2 E2|
FE F2 G2|AB c2 A2|d2 f2 fg|fe d2 dB|
A2 F2 FA|GA GA BG|AF D2 DE|D6||

